X:454
T:Trouble In Mind
C:The Boxcars - It's Just A Road
N:mandolin: Adam Steffey - Transcribed by Philippe Colleu
R:bluegrass
L:1/8
Q:1/4=215
M:4/4
K:C
"(108 bpm)"z2 [^G2E2] B,^C E2 | "E"G^G GB G^c BG | ^c^G B=G ^F/G/F E2 | "B"^F2 FE {F}^GB de | 
g^g a/z/b _be a=g | "E"^ge ^ce/z/ gb e'e | ^c'b g^f e^c Ac | "A"e^c Ac e^f g^g | 
bg ^f2 eA dA | "E"B2 d2 ^cA B2 | A/_B/A GA G^F EB, | GB ^GB G^c BG | "B"^cB G^F E^C E2 | 
"E"E2 E2 B,_B, A,2 | G,^G, D2 "E7"z4 | 


